X:0308
T:"Dermot"       (air)       0308
C:Unattributed
C:slow, with feeling
N:Transposed from F
Q:1/4=70
I:abc2nwc
B:O'Neill's Music Of Ireland (The 1850) Lyon & Healy, Chicago, 1903 edition
Z:FROM O'NEILL'S TO NOTEWORTHY, FROM NOTEWORTHY TO ABC, MIDI AND .TXT BY VINCE BRENNAN June 2003 (HTTP://WWW.SOSYOURMOM.COM)
M:3/4
L:1/8
K:D
"_vb"A3G F2|d3c B2|A2(GF) (ED)|F3E E2|
A3G F2|d2-~d e Hf2|D3/2E/2 F3E|D6||
(d3cBc)|d3D D2|(d3cde)|f3d B2|
A3G F2|d2-^~d e Hf2|D3/2E/2 F3E|D6|]
